X: 29397
T: Nick And Leila
R: reel
M: 4/4
K: Adorian
|:EAAA GABd|egfg edBG|EGGG GABG|FGED E2 ED|
EAAA GABd|egfg edBG|EGBd GABd|edBG A2 AG|
|:edAB cdeG|dgfg dgfg|edAB cdeG|dBGA Bdgf|
edAB cdeG|dgfg dgfg|edBG EGBd|edBG A2 AG:|

